(Generated by cnc-gcode-generator)
(x_start=0 y_start=0 units=mm)
(total_width=205 total_height=205)
(desired_width=200 desired_height=200)
(cut_step=0.500 tool_diameter=10)
(cut_depth=6 pass_depth=2)
(feed=800 plunge_feed=200 rpm=12000)
(safe_z=5 spindle_dwell=0)
G21
G17 G40 G49 G54 G80 G90 G94
G00 Z5
G00 X-8 Y-8
M03 S12000
G01 Z-2 F200
G01 X-7.500 Y-7.500 F800
G01 X206.500 Y-7.500
G01 X206.500 Y206.500
G01 X-7 Y206.500
G01 X-7 Y-7
G01 X206 Y-7
G01 X206 Y206
G01 X-6.500 Y206
G01 X-6.500 Y-6.500
G01 X205.500 Y-6.500
G01 X205.500 Y205.500
G01 X-6 Y205.500
G01 X-6 Y-6
G01 X205 Y-6
G01 X205 Y205
G01 X-5.500 Y205
G01 X-5.500 Y-5.500
G01 X205 Y-5.500
G01 X205 Y205
G01 X-5 Y205
G01 X-5 Y-5
G01 X205 Y-5
G01 X205 Y205
G01 X-5 Y205
G01 X-5 Y-5
G00 Z5
G00 X-8 Y-8
G01 Z-4 F200
G01 X-7.500 Y-7.500 F800
G01 X206.500 Y-7.500
G01 X206.500 Y206.500
G01 X-7 Y206.500
G01 X-7 Y-7
G01 X206 Y-7
G01 X206 Y206
G01 X-6.500 Y206
G01 X-6.500 Y-6.500
G01 X205.500 Y-6.500
G01 X205.500 Y205.500
G01 X-6 Y205.500
G01 X-6 Y-6
G01 X205 Y-6
G01 X205 Y205
G01 X-5.500 Y205
G01 X-5.500 Y-5.500
G01 X205 Y-5.500
G01 X205 Y205
G01 X-5 Y205
G01 X-5 Y-5
G01 X205 Y-5
G01 X205 Y205
G01 X-5 Y205
G01 X-5 Y-5
G00 Z5
G00 X-8 Y-8
G01 Z-6 F200
G01 X-7.500 Y-7.500 F800
G01 X206.500 Y-7.500
G01 X206.500 Y206.500
G01 X-7 Y206.500
G01 X-7 Y-7
G01 X206 Y-7
G01 X206 Y206
G01 X-6.500 Y206
G01 X-6.500 Y-6.500
G01 X205.500 Y-6.500
G01 X205.500 Y205.500
G01 X-6 Y205.500
G01 X-6 Y-6
G01 X205 Y-6
G01 X205 Y205
G01 X-5.500 Y205
G01 X-5.500 Y-5.500
G01 X205 Y-5.500
G01 X205 Y205
G01 X-5 Y205
G01 X-5 Y-5
G01 X205 Y-5
G01 X205 Y205
G01 X-5 Y205
G01 X-5 Y-5
M05
G00 Z5
G00 X-8 Y-8
M30